symbols/web/functions/materialsymbolsrounded/functions_wght500gradN25_48px.svg

<svg xmlns="http://www.w3.org/2000/svg" height="48" width="48"><path d="M14 40.2q-.9 0-1.55-.65T11.8 38q0-.45.275-1.075t.675-1.025L25.45 24l-12.7-11.9q-.4-.4-.675-1T11.8 10q0-.9.65-1.55T14 7.8h19.5q1.15 0 1.925.775.775.775.775 1.925t-.775 1.925q-.775.775-1.925.775H20.15l9.15 8.4q.5.5.75 1.125T30.3 24q0 .65-.25 1.275-.25.625-.75 1.125l-9.15 8.4H33.5q1.15 0 1.925.775.775.775.775 1.925t-.775 1.925q-.775.775-1.925.775Z"/></svg>

<svg xmlns="http://www.w3.org/2000/svg" height="48" width="48"><path d="M14 40.2Q13.1 40.2 12.45 39.55Q11.8 38.9 11.8 38Q11.8 37.55 12.075 36.925Q12.35 36.3 12.75 35.9L25.45 24L12.75 12.1Q12.35 11.7 12.075 11.1Q11.8 10.5 11.8 10Q11.8 9.1 12.45 8.45Q13.1 7.8 14 7.8H33.5Q34.65 7.8 35.425 8.575Q36.2 9.35 36.2 10.5Q36.2 11.65 35.425 12.425Q34.65 13.2 33.5 13.2H20.15L29.3 21.6Q29.8 22.1 30.05 22.725Q30.3 23.35 30.3 24Q30.3 24.65 30.05 25.275Q29.8 25.9 29.3 26.4L20.15 34.8H33.5Q34.65 34.8 35.425 35.575Q36.2 36.35 36.2 37.5Q36.2 38.65 35.425 39.425Q34.65 40.2 33.5 40.2Z"/></svg>
